public/img/header/login.svg

<svg width="14" height="16" viewBox="0 0 14 16" fill="none" xmlns="http://www.w3.org/2000/svg">
<path d="M1.55556 10.4H3.11111V14.4H12.4444V1.6H3.11111V5.6H1.55556V0.8C1.55556 0.587827 1.6375 0.384344 1.78336 0.234315C1.92922 0.0842854 2.12705 0 2.33333 0H13.2222C13.4285 0 13.6263 0.0842854 13.7722 0.234315C13.9181 0.384344 14 0.587827 14 0.8V15.2C14 15.4122 13.9181 15.6157 13.7722 15.7657C13.6263 15.9157 13.4285 16 13.2222 16H2.33333C2.12705 16 1.92922 15.9157 1.78336 15.7657C1.6375 15.6157 1.55556 15.4122 1.55556 15.2V10.4ZM6.22222 7.2V4.8L10.1111 8L6.22222 11.2V8.8H0V7.2H6.22222Z" fill="#1F1E25"/>
</svg>

<svg width="14" height="16" fill="none" xmlns="http://www.w3.org/2000/svg"><path d="M1.556 10.4H3.11v4h9.333V1.6H3.111v4H1.556V.8c0-.212.081-.416.227-.566A.767.767 0 012.333 0h10.89c.205 0 .403.084.55.234.145.15.227.354.227.566v14.4a.812.812 0 01-.228.566.767.767 0 01-.55.234H2.333a.767.767 0 01-.55-.234.812.812 0 01-.227-.566v-4.8zm4.666-3.2V4.8l3.89 3.2-3.89 3.2V8.8H0V7.2h6.222z" fill="#1F1E25"/></svg>
